X: 26105
T: McFarlan's Delight
R: jig
M: 6/8
K: Dmajor
|:B|AFD DFA|BGE EFG|AFD DFA|ecA Ace|
AFD DFA|BGE EFG|AFD GFE|D2D D2:|
A|AFA Adf|gfg efg|afd dcd|ecA A2G|
AFA Adf|gfg efg|afd Adc|ded d2A|
AFA Adf|gfg efg|afd dcd|ecA AGF|
GBd cec|dfd efg|afd gec|d2d d2||

